X: 7373
T: Cliffs, The
R: hornpipe
M: 4/4
K: Dmajor
|:AF|DFAF DGBG|FAde fdAF|GBed cdgf|(3efe (3dcB (3ABA (3GFE|
DFAF EGBG|FAde fdAF|GBdg fdce|d2 f2 d2:|
|:cd|eAAA fAAA|gefd eAAA|gefd edcd|(3efe (3dcB (3ABA (3GFE|
DFAF DGBG|FAde fdAF|GBdg fdce|d2 f2 d2:|

